X:95
T:Captain Keeler
R:Reel
B:The Athole Collection
M:C|
L:1/8
K:G Minor
F|~B2 d/c/B fBbB|~B2 d/c/B AFcA|~B2 d/c/B fBbB|cAFA BGG:|
B|DGBG dGBG|DGBG AFcA|DGBG dGBG|cAFA BGGB|
DGBG dGBG|DGBG AFcA|DGBG dGBG|cAFA BGG||

